X: 1296
T: Kürdîlihicazkâr Longa
C: Haydar Tatlıyay
O: Turkey
F: http://compmusic.upf.edu/node/140
N: kurdilihicazkar--longa--nimsofyan----haydar_tatliyay
N: makam= kurdilihicazkar
N: form= longa
N: usul= nimsofyan = 2/4
M: 2/4
L: 1/16
K: C _B _e _A 
Q: 1/4=90
%%MIDI tuningsystem comma53
a3g f3g  | a4 (3G2c2e2  | g3f e3f  | g4 z4  | \
w:  1. HANE  |   |   |   | 
f3e d3e  | f3c' bag2  | 
w:   |   | 
(3f2e2d2 (3c2B2c2  | (3d2B2c2 (3A2B2G2  | \
w:   |   | 
a3g f3g  | a4 (3G2c2e2  | g3f e3f  | 
w:  1. HANE  |   |   | 
g4 z4  | f3e d3e  | f3c' bag2  | (3f2e2d2 (3c2B2A2  | \
w:   |   |   |   | 
G4 z4  | d3d dcB2  | 
w:   |  TESLİM  | 
d3d dcB2  | e3e edc2  | e3e edc2  | g3g gec2  | \
w:   |   |   |   | 
g3g gec2  | 
w:   | 
(3c'2b2a2 (3g2f2e2  | (3d2c2e2 d2z2  | \
w:   |   | 
d3d dcB2  | d3d dcB2  | 
w:   |   | 
e3e edc2  | e3e edc2  | g3g gec2  | g3g gec2  | \
w:   |   |   |   | 
(3b2a2g2 (3f2e2d2  | 
w:   | 
(3c2B2A2 G2z2  | f3g a3b  | c'3d' bag2  | \
w:   |  2. HANE  |   | 
b3c' agf2  | a3b gfe2  | 
w:   |   | 
g3a f=ed2  | f3g edc2  | (3G2A2B2 (3c2d2e2  | \
w:   |   |   | 
(3f2g2a2 c'4  | f3g a3b  | 
w:   |  2. HANE  | 
c'3d' bag2  | b3c' agf2  | a3b gfe2  | g3a f=ed2  | \
w:   |   |   |   | 
f3g edc2  | 
w:   | 
(3c'2b2a2 (3a2g2f2  | g4 z4  | d3d dcB2  | \
w:   |   |  TESLİM  | 
d3d dcB2  | e3e edc2  | 
w:   |   | 
e3e edc2  | g3g gec2  | g3g gec2  | (3c'2b2a2 (3g2f2e2  | 
w:   |   |   |   | 
(3d2c2e2 d2z2  | d3d dcB2  | d3d dcB2  | \
w:   |   |   | 
e3e edc2  | e3e edc2  | 
w:   |   | 
g3g gec2  | g3g gec2  | (3b2a2g2 (3f2e2d2  | \
w:   |   |   | 
(3c2B2A2 G2z2  | 
w:   | 
(3b2a2g2 (3a2b2g2  | (3f2g2e2 d4  | (3a2g2a2 (3g2a2f2  | \
w:  3. HANE  |   |   | 
(3e2f2d2 c4  | (3f2e2d2 (3e2f2d2  | 
w:   |   | 
(3d2c2B2 (3c2d2B2  | (3c2B2A2 (3B2c2A2  | \
w:   |   | 
(3G2A2B2 (3c2d2e2  | (3f2g2a2 (3b2c'2a2  | 
w:   |   | 
(3g2e2f2 (3g2a2b2  | c'4 z4  | (3b2a2g2 (3a2b2g2  | \
w:   |   |  3. HANE  | 
(3f2g2e2 d4  | (3a2g2a2 (3g2a2f2  | 
w:   |   | 
(3e2f2d2 c4  | (3f2e2d2 (3e2f2d2  | (3d2c2B2 (3c2d2B2  | \
w:   |   |   | 
(3c2B2A2 (3B2c2A2  | 
w:   | 
(3g2c'2b2 (3a2g2f2  | (3e2d2c2 (3d2c2B2  | \
w:   |   | 
B3G A3F  | G4 z4  | d3d dcB2  | 
w:   |   |  TESLİM  | 
d3d dcB2  | e3e edc2  | e3e edc2  | g3g gec2  | \
w:   |   |   |   | 
g3g gec2  | 
w:   | 
(3c'2b2a2 (3g2f2e2  | (3d2c2e2 d2z2  | \
w:   |   | 
d3d dcB2  | d3d dcB2  | 
w:   |   | 
e3e edc2  | e3e edc2  | g3g gec2  | g3g gec2  | \
w:   |   |   |   | 
(3b2a2g2 (3f2e2d2  | 
w:   | 
(3c2B2A2 G2z2  | G3A B3c  | (3d2B2c2 (3A2B2G2  | \
w:   |  4. HANE  |   | 
A3B c3d  | (3e2c2d2 (3B2c2A2  | 
w:   |   | 
c3d e3f  | (3g2e2f2 (3d2e2c2  | (3c'2b2c'2 (3g2a2f2  | \
w:   |   |   | 
(3g2e2f2 (3d2e2c2  | 
w:   | 
G3A B3c  | (3d2B2c2 (3A2B2G2  | A3B c3d  | \
w:  4. HANE  |   |   | 
(3e2c2d2 (3B2c2A2  | c3d e3f  | 
w:   |   | 
(3g2e2f2 (3d2e2c2  | (3b2a2g2 (3f2e2d2  | \
w:   |   | 
(3c2B2A2 G4  | d3d dcB2  | 
w:   |  TESLİM  | 
d3d dcB2  | e3e edc2  | e3e edc2  | g3g gec2  | \
w:   |   |   |   | 
g3g gec2  | 
w:   | 
(3c'2b2a2 (3g2f2e2  | (3d2c2e2 d2z2  | \
w:   |   | 
d3d dcB2  | d3d dcB2  | 
w:   |   | 
e3e edc2  | e3e edc2  | g3g gec2  | g3g gec2  | \
w:   |   |   |   | 
(3b2a2g2 (3f2e2d2  | 
w:   | 
(3c2B2A2 G2z2  | |


